X: 9445
T: Dans Loudieg
R: reel
M: 4/4
K: Adorian
|:AeeA cBAG|AeeA c2A2:|
|:AeeA cz~A2|c2BA GABG|BcdB d2cA|cdBA GAB2|BcdB c2A2:|

